!!!OTL@@DE: Die Welt, ein Orchester
!!!COM: Himmel, Friedrich Heinrich
!!!ONB: Aus Fanchon
!!!ODT: 1802
!!!OMD: Andante con moto
!!!LYR: Kotzebue, August von
!!!LDT: 1803
!!!OCL: Erk, Ludwig
!!!GCO: Deutscher Liederschatz, Band 1
**kern	**kern	**kern
*staff3	*staff2	*staff1
*Ipiano	*Ipiano	*Ivox
*>[A,A,B]	*>[A,A,B]	*>[A,A,B]
*>norep[A,B]	*>norep[A,B]	*>norep[A,B]
*>A	*>A	*>A
*clefF4	*clefG2	*clefG2
*k[b-e-]	*k[b-e-]	*k[b-e-]
*B-:	*B-:	*B-:
*M3/4	*M3/4	*M3/4
*MM72	*MM72	*MM72
8r	8f/L	8f/
4r	8g/	8g/
.	8a/J	8a/
=1	=1	=1
*	*^	*
4BBB-/ 4BB-/	4.b-/	8r	4.b-\
.	.	8d\ 8f\L	.
4r	.	8d\ 8f\	.
.	8b-/	8d\ 8f\J	8b-\
4FF/	4cc/	8r	8cc\
.	.	8c\ 8f\ 8a\	8cc\
=2	=2	=2	=2
4BBB-/ 4BB-/	4dd/	8r	4dd\
.	.	8d\ 8f\L	.
4r	4b-/	8d\ 8f\	4b-\
.	.	8d\ 8f\J	.
4F\	4cc/	8r	8cc\
.	.	8c\ 8f\ 8a\	8cc\
=3	=3	=3	=3
4B-\	4dd/	8r	4dd\
.	.	8d\ 8f\L	.
4r	4b-/	8d\ 8f\	4b-\
.	.	8d\ 8f\J	.
4BB-\ 4B-\	4dd/	8r	4dd\
.	.	8d\ 8f\	.
*	*v	*v	*
=4	=4	=4
*^	*	*
8.A/L	2C\	8.f/ 8.cc/L	8.cc\
16B-/k	.	16dd/k	16dd\
8A/	.	8cc/	8cc\
8G/J	.	8b-/J	8b-\
8F/L	4C\	8c/ 8a/L	8a/
8En/ 8B-/J	.	8c/ 8g/J	8g/
*v	*v	*	*
=5	=5	=5
4F\ 4A\	8r	4f/
.	8c/ 8f/L	.
4r	8c/ 8f/ 8a/	4r
.	8f/ 8a/ 8cc/J	.
*	*^	*
4BB-\ 4B-\	4dd/	8r	4dd\
.	.	8d\ 8f\	.
*	*v	*v	*
=6	=6	=6
*^	*	*
8.A/L	2C\	8.f/ 8.cc/L	8.cc\
16B-/k	.	16dd/k	16dd\
8A/	.	8cc/	8cc\L
8G/J	.	8b-/J	8b-\J
8F/L	4C\	8c/ 8a/L	8a/L
8En/ 8B-/J	.	8c/ 8g/J	8g/J
=7	=7	=7	=7
4A/	8F\	4c/ 4f/	4f/
.	8F\L	.	.
8ryy	8FF\J	8r	8r
*v	*v	*	*
=:|!	=:|!	=:|!
*>B	*>B	*>B
*	*^	*
8r	8f/L	8r	8f/
4F\	8f/	4A\ 4c\ 4e-\	8f/
.	8f/J	.	8f/
=8	=8	=8	=8
4BB-\ 4F\	4.b-/	8r	4.b-\
.	.	8B-\ 8d\L	.
4r	.	8B-\ 8d\	.
.	8f/L	8B-\ 8d\	8f/
4BB-/	8g/	8B-\ 8d\	8g/
.	8a-/J	8B-\ 8d\J	8a-/
=9	=9	=9	=9
4EE-/ 4E-/	4g/	8r	4g/
.	.	8G\ 8B-\	.
4r	4e-/	8r	4e-/
.	.	8G\ 8B-\	.
4EE-/ 4E-/	4g/	8r	8r
.	.	8B-\ 8e-\	8g/
*	*v	*v	*
=10	=10	=10
4EE-/ 4E-/	8c/ 8an/L	8an/
.	8f/	8f/
4DD/ 4D/	8B-/ 8b-/	8b-\
.	8f/J	8f/
4BBB-/ 4BB-/	8d/ 8b-/L	8b-\
.	8f/ 8b-/ 8dd/J	8dd\
=11	=11	=11
4.FF;/ 4.F;/	4.c;/ 4.f;/ 4.a;/ 4.cc;/	4.f;/
*	*^	*
8r	8f/L	8r	8f/
4F\ 4A\	8g/	4c\ 4e-\	8g/
.	8a/J	.	8a/
=12	=12	=12	=12
2BB-\ 2F\	2b-/	8r	4.b-\
.	.	8B-\ 8d\L	.
.	.	8B-\ 8d\	.
.	.	8B-\ 8d\J	8b-\
4BB-\ 4F\	4b-/	8r	8b-\
.	.	8B-\ 8d\	8b-\
=13	=13	=13	=13
4E-\ 4G\	4b-/	8r	(8.b-/L
.	.	8B-\ 8e-\	.
.	.	.	16g/Jk)
4r	4.g/	8r	4g/
.	.	8B-\ 8e-\L	.
4EE-/ 4E-/	.	8B-\ 8e-\	8r
.	8g/	8B-\ 8e-\J	8g/
=14	=14	=14	=14
2FF/ 2F/	4.f/	8r	8.f/
.	.	8B-\ 8d\	.
.	.	.	16f/
.	.	8B-\ 8d\	8f/
.	8g/L	8B-\ 8e-\	8g/
4FF/ 4F/	8f/	8A\ 8d\	8f/
.	8e-/J	8A\ 8c\	8e-/
*	*v	*v	*
=15	=15	=15
4.GG/ 4.G/	8B-/ 8d/L	4d/
.	8B-/ 8d/ 8b-/	.
.	8B-/ 8d/ 8b-/	4r
8GG/ 8G/L	8B-/ 8d/ 8b-/	.
8FF/ 8F/	8B-/ 8d/ 8b-/	8r
8EE-/ 8E-/J	8c/ 8f/ 8a/J	8f/
=16	=16	=16
*	*^	*
4DD/ 4D/	4.b-/	8r	8.b-\
.	.	8B-\ 8f\L	.
.	.	.	16b-\
4r	.	8B-\ 8f\	8b-\
.	8b-/L	8d\	8b-\
4BBB-/ 4BB-/	8dd/	8f\	8.dd\
.	8b-/J	8d\J	.
.	.	.	16b-\
=17	=17	=17	=17
4EE-/ 4E-/	4b-/	8r	(8.b-/L
.	.	8B-\ 8e-\	.
.	.	.	16g/Jk)
4r	4.g/	8r	4g/
.	.	8B-\ 8e-\L	.
4EE-/ 4E-/	.	8B-\ 8e-\	8r
.	8g/	8B-\ 8e-\J	8g/
=18	=18	=18	=18
2FF/ 2F/	4.f/	8r	8.f/
.	.	8B-\ 8d\L	.
.	.	.	16f/
.	.	8B-\ 8d\	8f/
.	8f/L	8B-\ 8d\J	8f/
4FF/ 4F/	8g/	8r	8g/
.	8a/J	8c\ 8e-\	8a/
=19	=19	=19	=19
2GG/ 2G/	[2b-/	8r	([4b-\
.	.	8B-\ 8d\L	.
.	.	8B-\ 8d\	8b-\L]
.	.	8B-\ 8d\J	16dd\L
.	.	.	16cc\JJ
4E-\ 4G\	8b-/L]	8B-\ 8e-\L	8b-\)
.	16a/L	8B-\ 8e-\J	16a/LL
.	16g/JJ	.	16g/JJ
=20	=20	=20	=20
2F\	8.g/L	8r	8.g/
.	.	8B-\ 8d\L	.
.	16f/Jk	.	16f/
.	8f/L	8B-\ 8d\	8f/
.	8f/	8B-\ 8d\J	8f/
4FF/	8g/	8r	8g/
.	8a/J	8c\ 8e-\	8a/
*	*v	*v	*
=21	=21	=21
4BBB-/ 4BB-/	8d/ 8b-/L	4b-\
.	8f/	.
8BB-\ 8B-\L	8d/ 8b-/	4r
8F\	8f/	.
8BB-\ 8B-\	8d/ 8b-/	4r
8F\J	8f/ 8dd/J	.
=22	=22	=22
4BB-\ 4B-\	4d/ 4b-/	4r
8r	8r	8r
==	==	==
*-	*-	*-
!!!ENC: Craig Stuart Sapp
!!!END: 2004/05/26/
!!!EFL: 028/651
